; generated by PrusaSlicer 2.3.1+win64 on 2021-07-03 at 21:28:56 UTC

; 

; external perimeters extrusion width = 0.45mm
; perimeters extrusion width = 0.45mm
; infill extrusion width = 0.45mm
; solid infill extrusion width = 0.45mm
; top infill extrusion width = 0.40mm
; first layer extrusion width = 0.42mm

M73 P0 R9
M73 Q0 S9
M201 X1000 Y1000 Z200 E5000 ; sets maximum accelerations, mm/sec^2
M203 X200 Y200 Z12 E120 ; sets maximum feedrates, mm/sec
M204 P1250 R1250 T1250 ; sets acceleration (P, T) and retract acceleration (R), mm/sec^2
M205 X8.00 Y8.00 Z0.40 E4.50 ; sets the jerk limits, mm/sec
M205 S0 T0 ; sets the minimum extruding and travel feed rate, mm/sec
M107
;TYPE:Custom
M862.3 P "MK3S" ; printer model check
M862.1 P0.4 ; nozzle diameter check
M115 U3.9.3 ; tell printer latest fw version
G90 ; use absolute coordinates
M83 ; extruder relative mode
M104 S215 ; set extruder temp
M140 S60 ; set bed temp
M190 S60 ; wait for bed temp
M109 S215 ; wait for extruder temp
G28 W ; home all without mesh bed level
G80 ; mesh bed leveling
G1 Y-3.0 F1000.0 ; go outside print area
G92 E0.0
G1 X60.0 E9.0 F1000.0 ; intro line
G1 X100.0 E12.5 F1000.0 ; intro line
G92 E0.0
M221 S95

; Don't change E values below. Excessive value can damage the printer.
M907 E430 ; set extruder motor current
G21 ; set units to millimeters
G90 ; use absolute coordinates
M83 ; use relative distances for extrusion
M900 K0.05 ; Filament gcode LA 1.5
M900 K30 ; Filament gcode LA 1.0
;LAYER_CHANGE
;Z:0.2
;HEIGHT:0.2
;BEFORE_LAYER_CHANGE
G92 E0.0
;0.2


M73 P1 R9
M73 Q1 S9
G1 E-0.80000 F2100.000
G1 Z0.400 F10800.000
;AFTER_LAYER_CHANGE
;0.2
G1 X116.374 Y100.322
G1 Z0.200
G1 E0.80000 F2100.000
M204 S1000
;TYPE:Skirt
;WIDTH:0.42
G1 F1200.000
G1 X117.204 Y99.574 E0.03502
G1 X117.925 Y99.097 E0.02710
G1 X118.736 Y98.700 E0.02834
G1 X119.576 Y98.418 E0.02779
G1 X120.498 Y98.241 E0.02943
G1 X126.442 Y97.933 E0.18662
G1 X132.365 Y97.932 E0.18569
G1 X132.964 Y97.991 E0.01889
G1 X133.537 Y98.161 E0.01875
G1 X134.068 Y98.438 E0.01875
G1 X134.539 Y98.813 E0.01889
G1 X134.929 Y99.272 E0.01889
G1 X135.223 Y99.793 E0.01875
G1 X135.412 Y100.360 E0.01875
G1 X135.490 Y100.953 E0.01875
G1 X135.489 Y105.131 E0.13099
G1 X135.428 Y105.928 E0.02507
G1 X135.247 Y106.809 E0.02820
G1 X134.902 Y107.766 E0.03188
G1 X134.192 Y108.996 E0.04455
G1 X133.525 Y109.787 E0.03243
G1 X132.796 Y110.426 E0.03039
G1 X132.083 Y110.899 E0.02683
G1 X131.308 Y111.282 E0.02710
G1 X130.478 Y111.568 E0.02751
G1 X129.709 Y111.729 E0.02464
G1 X123.545 Y112.067 E0.19359
G1 X117.178 Y112.034 E0.19962
G1 X116.585 Y111.885 E0.01916
G1 X116.033 Y111.624 E0.01916
G1 X115.545 Y111.264 E0.01902
G1 X115.132 Y110.813 E0.01916
G1 X114.709 Y110.041 E0.02760
G1 X114.518 Y109.182 E0.02760
G1 X114.509 Y104.956 E0.13249
G1 X114.592 Y103.951 E0.03163
G1 X114.969 Y102.545 E0.04564
G1 X115.443 Y101.558 E0.03434
G1 X116.338 Y100.370 E0.04663
G1 X116.638 Y100.597 F10800.000
G1 F1200.000
G1 X117.468 Y99.848 E0.03503
G1 X118.123 Y99.418 E0.02458
G1 X118.886 Y99.046 E0.02663
G1 X119.676 Y98.781 E0.02612
G1 X120.555 Y98.614 E0.02804
G1 X126.452 Y98.310 E0.18516
M73 Q2 S9
G1 X132.364 Y98.309 E0.18537
M73 P2 R9
G1 X132.898 Y98.362 E0.01681
G1 X133.408 Y98.516 E0.01669
G1 X133.881 Y98.767 E0.01681
G1 X134.297 Y99.105 E0.01681
G1 X134.638 Y99.514 E0.01669
G1 X134.895 Y99.985 E0.01681
G1 X135.056 Y100.496 E0.01681
G1 X135.114 Y101.025 E0.01669
G1 X135.112 Y105.111 E0.12809
G1 X135.056 Y105.868 E0.02381
G1 X134.886 Y106.700 E0.02663
G1 X134.561 Y107.604 E0.03009
G1 X133.877 Y108.789 E0.04293
G1 X133.242 Y109.536 E0.03073
G1 X132.532 Y110.152 E0.02945
G1 X131.148 Y110.940 E0.04996
G1 X129.628 Y111.361 E0.04945
G1 X123.539 Y111.690 E0.19118
G1 X117.255 Y111.664 E0.19703
G1 X116.719 Y111.533 E0.01733
G1 X116.219 Y111.297 E0.01733
G1 X115.777 Y110.966 E0.01733
G1 X115.407 Y110.550 E0.01745
G1 X115.048 Y109.870 E0.02409
G1 X114.892 Y109.122 E0.02396
G1 X114.886 Y104.959 E0.13053
G1 X114.967 Y103.999 E0.03022
G1 X115.325 Y102.669 E0.04318
G1 X115.772 Y101.742 E0.03227
G1 X116.602 Y100.645 E0.04312
G1 X116.901 Y100.875 F10800.000
G1 F1200.000
G1 X116.963 Y100.795 E0.00317
G1 X117.721 Y100.131 E0.03161
G1 X119.032 Y99.393 E0.04718
G1 X119.773 Y99.146 E0.02447
G1 X120.603 Y98.989 E0.02650
G1 X126.463 Y98.687 E0.18397
G1 X132.364 Y98.686 E0.18504
G1 X133.073 Y98.795 E0.02249
G1 X133.717 Y99.111 E0.02249
G1 X134.237 Y99.604 E0.02249
G1 X134.586 Y100.227 E0.02237
G1 X134.736 Y100.990 E0.02437
G1 X134.737 Y105.019 E0.12634
G1 X134.536 Y106.549 E0.04839
G1 X133.988 Y107.914 E0.04611
G1 X133.389 Y108.804 E0.03363
G1 X132.928 Y109.316 E0.02161
G1 X132.279 Y109.869 E0.02673
G1 X130.996 Y110.595 E0.04623
G1 X129.552 Y110.991 E0.04695
G1 X123.537 Y111.313 E0.18885
G1 X117.332 Y111.294 E0.19456
G1 X116.851 Y111.180 E0.01550
G1 X116.404 Y110.968 E0.01550
G1 X116.011 Y110.669 E0.01550
G1 X115.688 Y110.294 E0.01550
G1 X115.385 Y109.690 E0.02119
G1 X115.264 Y109.026 E0.02119
G1 X115.264 Y104.928 E0.12849
G1 X115.434 Y103.581 E0.04257
G1 X115.722 Y102.686 E0.02947
G1 X116.150 Y101.849 E0.02947
G1 X116.864 Y100.923 E0.03667
; printing object CableCount.STL id:0 copy 0
;WIPE_START
G1 F8640.000
G1 X116.963 Y100.795 E-0.03718
G1 X117.721 Y100.131 E-0.23280
G1 X119.032 Y99.393 E-0.34746
G1 X119.618 Y99.198 E-0.14257
;WIPE_END
G1 E-0.04000 F2100.000
G1 Z0.600 F10800.000
M73 Q3 S9
G1 X122.312 Y102.737
G1 Z0.200
G1 E0.80000 F2100.000
;TYPE:Perimeter
G1 F1200.000
G1 X122.312 Y107.773 E0.15790
M73 P3 R9
G1 X119.054 Y107.773 E0.10215
G1 X119.054 Y105.038 E0.08575
G1 X119.076 Y104.705 E0.01047
G1 X119.133 Y104.415 E0.00927
G1 X119.228 Y104.135 E0.00927
G1 X119.359 Y103.870 E0.00927
G1 X119.523 Y103.624 E0.00927
G1 X119.718 Y103.401 E0.00927
G1 X119.941 Y103.206 E0.00927
G1 X120.187 Y103.042 E0.00927
G1 X120.452 Y102.911 E0.00927
G1 X120.732 Y102.816 E0.00927
G1 X121.022 Y102.759 E0.00927
G1 X121.355 Y102.737 E0.01047
G1 X122.252 Y102.737 E0.02812
G1 X122.689 Y102.360 F10800.000
G1 F1200.000
G1 X122.689 Y108.150 E0.18155
G1 X118.677 Y108.150 E0.12580
G1 X118.677 Y105.026 E0.09796
G1 X118.701 Y104.656 E0.01163
G1 X118.768 Y104.317 E0.01082
G1 X118.879 Y103.990 E0.01082
G1 X119.032 Y103.681 E0.01082
G1 X119.224 Y103.394 E0.01082
G1 X119.451 Y103.134 E0.01082
G1 X119.711 Y102.907 E0.01082
G1 X119.998 Y102.715 E0.01082
G1 X120.307 Y102.562 E0.01082
G1 X120.634 Y102.451 E0.01082
G1 X120.973 Y102.384 E0.01082
G1 X121.343 Y102.360 E0.01163
G1 X122.629 Y102.360 E0.04033
G1 X123.066 Y101.983 F10800.000
;TYPE:External perimeter
G1 F1200.000
G1 X123.066 Y108.527 E0.20520
G1 X118.300 Y108.527 E0.14945
G1 X118.300 Y105.013 E0.11017
G1 X118.326 Y104.606 E0.01279
G1 X118.403 Y104.219 E0.01237
G1 X118.530 Y103.846 E0.01237
G1 X118.705 Y103.492 E0.01237
G1 X118.924 Y103.164 E0.01237
G1 X119.184 Y102.867 E0.01237
G1 X119.481 Y102.607 E0.01237
G1 X119.809 Y102.388 E0.01237
G1 X120.163 Y102.213 E0.01237
G1 X120.536 Y102.086 E0.01237
G1 X120.923 Y102.009 E0.01237
G1 X121.330 Y101.983 E0.01279
G1 X123.006 Y101.983 E0.05254
G1 X122.867 Y102.330 F10800.000
;WIPE_START
G1 F8640.000
G1 X123.036 Y105.274 E-0.76000
;WIPE_END
G1 E-0.04000 F2100.000
G1 Z0.600 F10800.000
G1 X122.199 Y103.660
G1 Z0.200
G1 E0.80000 F2100.000
;TYPE:Solid infill
;WIDTH:0.442797
G1 F1200.000
G1 X121.558 Y103.020 E0.03014
G1 X121.020 Y103.047 E0.01790
G1 X122.029 Y104.056 E0.04745
G1 X122.029 Y104.622 E0.01880
G1 X120.575 Y103.168 E0.06836
G1 X120.328 Y103.288 E0.00912
G1 X120.209 Y103.367 E0.00477
G1 X122.029 Y105.187 E0.08558
G1 X122.029 Y105.753 E0.01880
G1 X119.900 Y103.624 E0.10013
G1 X119.748 Y103.796 E0.00764
G1 X119.652 Y103.941 E0.00578
G1 X122.029 Y106.318 E0.11179
G1 X122.029 Y106.884 E0.01880
G1 X119.464 Y104.319 E0.12060
G1 X119.407 Y104.488 E0.00593
G1 X119.354 Y104.775 E0.00969
G1 X122.029 Y107.449 E0.12577
G1 X122.029 Y107.490 E0.00135
G1 X121.504 Y107.490 E0.01745
G1 X119.337 Y105.322 E0.10193
G1 X119.337 Y105.888 E0.01880
G1 X120.939 Y107.490 E0.07534
G1 X120.373 Y107.490 E0.01880
G1 X119.337 Y106.453 E0.04875
G1 X119.337 Y107.019 E0.01880
G1 X119.977 Y107.660 E0.03013
;WIPE_START
G1 F8640.000
G1 X119.337 Y107.019 E-0.20926
G1 X119.337 Y106.453 E-0.13058
G1 X120.373 Y107.490 E-0.33851
M73 Q4 S9
G1 X120.727 Y107.490 E-0.08166
;WIPE_END
G1 E-0.04000 F2100.000
G1 Z0.600 F10800.000
G1 X127.688 Y107.263
G1 Z0.200
M73 P4 R9
G1 E0.80000 F2100.000
;TYPE:Perimeter
;WIDTH:0.42
G1 F1200.000
G1 X127.688 Y102.227 E0.15790
G1 X130.946 Y102.227 E0.10215
G1 X130.946 Y104.962 E0.08575
G1 X130.924 Y105.295 E0.01047
G1 X130.867 Y105.585 E0.00927
G1 X130.772 Y105.865 E0.00927
G1 X130.641 Y106.130 E0.00927
G1 X130.477 Y106.376 E0.00927
G1 X130.282 Y106.599 E0.00927
G1 X130.059 Y106.794 E0.00927
G1 X129.813 Y106.958 E0.00927
G1 X129.548 Y107.089 E0.00927
G1 X129.268 Y107.184 E0.00927
G1 X128.978 Y107.241 E0.00927
G1 X128.645 Y107.263 E0.01047
G1 X127.748 Y107.263 E0.02812
G1 X127.311 Y107.640 F10800.000
G1 F1200.000
G1 X127.311 Y101.850 E0.18155
G1 X131.323 Y101.850 E0.12580
G1 X131.323 Y104.974 E0.09796
G1 X131.299 Y105.344 E0.01163
G1 X131.232 Y105.683 E0.01082
G1 X131.121 Y106.010 E0.01082
G1 X130.968 Y106.319 E0.01082
G1 X130.776 Y106.606 E0.01082
G1 X130.549 Y106.866 E0.01082
G1 X130.289 Y107.093 E0.01082
G1 X130.002 Y107.285 E0.01082
G1 X129.693 Y107.438 E0.01082
G1 X129.366 Y107.549 E0.01082
G1 X129.027 Y107.616 E0.01082
G1 X128.657 Y107.640 E0.01163
G1 X127.371 Y107.640 E0.04033
G1 X126.934 Y108.017 F10800.000
;TYPE:External perimeter
G1 F1200.000
G1 X126.934 Y101.473 E0.20520
G1 X131.700 Y101.473 E0.14945
G1 X131.700 Y104.987 E0.11017
G1 X131.674 Y105.394 E0.01279
G1 X131.597 Y105.781 E0.01237
G1 X131.470 Y106.154 E0.01237
G1 X131.295 Y106.508 E0.01237
G1 X131.076 Y106.836 E0.01237
G1 X130.816 Y107.133 E0.01237
G1 X130.519 Y107.393 E0.01237
G1 X130.191 Y107.612 E0.01237
G1 X129.837 Y107.787 E0.01237
G1 X129.464 Y107.914 E0.01237
G1 X129.077 Y107.991 E0.01237
G1 X128.670 Y108.017 E0.01279
G1 X126.994 Y108.017 E0.05254
G1 X127.133 Y107.670 F10800.000
;WIPE_START
G1 F8640.000
G1 X126.964 Y104.726 E-0.76000
;WIPE_END
G1 E-0.04000 F2100.000
G1 Z0.600 F10800.000
G1 X130.023 Y102.340
G1 Z0.200
G1 E0.80000 F2100.000
;TYPE:Solid infill
;WIDTH:0.442797
G1 F1200.000
G1 X130.663 Y102.981 E0.03014
G1 X130.663 Y103.547 E0.01880
G1 X129.627 Y102.510 E0.04875
G1 X129.061 Y102.510 E0.01880
G1 X130.663 Y104.112 E0.07534
G1 X130.663 Y104.678 E0.01880
G1 X128.496 Y102.510 E0.10194
G1 X127.971 Y102.510 E0.01745
G1 X127.971 Y102.551 E0.00136
G1 X130.646 Y105.225 E0.12577
G1 X130.593 Y105.512 E0.00968
G1 X130.536 Y105.681 E0.00594
G1 X127.971 Y103.116 E0.12059
G1 X127.971 Y103.682 E0.01880
G1 X130.348 Y106.059 E0.11179
G1 X130.252 Y106.204 E0.00578
G1 X130.100 Y106.377 E0.00764
G1 X127.971 Y104.247 E0.10012
G1 X127.971 Y104.813 E0.01880
G1 X129.791 Y106.633 E0.08558
G1 X129.672 Y106.712 E0.00477
G1 X129.425 Y106.832 E0.00913
G1 X127.971 Y105.378 E0.06835
G1 X127.971 Y105.944 E0.01880
G1 X128.980 Y106.953 E0.04744
G1 X128.442 Y106.980 E0.01790
G1 X127.801 Y106.340 E0.03013
; stop printing object CableCount.STL id:0 copy 0
M106 S84.15
;LAYER_CHANGE
;Z:0.3
;HEIGHT:0.1
;BEFORE_LAYER_CHANGE
G92 E0.0
;0.3


;WIPE_START
M73 Q5 S9
G1 F8640.000
G1 X128.442 Y106.980 E-0.20926
G1 X128.980 Y106.953 E-0.12434
G1 X127.971 Y105.944 E-0.32946
G1 X127.971 Y105.524 E-0.09695
;WIPE_END
G1 E-0.04000 F2100.000
G1 Z0.600 F10800.000
;AFTER_LAYER_CHANGE
;0.3
G1 X114.709 Y110.041
M73 P5 R9
G1 Z0.300
G1 E0.80000 F2100.000
;TYPE:Skirt
;WIDTH:0.42
G1 F1582
G1 X114.518 Y109.182 E0.01458
G1 X114.509 Y104.956 E0.07002
G1 X114.592 Y103.951 E0.01671
G1 X114.969 Y102.545 E0.02412
G1 X115.443 Y101.558 E0.01815
G1 X116.374 Y100.322 E0.02563
G1 X117.204 Y99.574 E0.01851
G1 X117.925 Y99.097 E0.01432
G1 X118.736 Y98.700 E0.01497
G1 X119.576 Y98.418 E0.01468
G1 X120.498 Y98.241 E0.01555
G1 X126.442 Y97.933 E0.09862
G1 X132.365 Y97.932 E0.09813
G1 X132.964 Y97.991 E0.00998
G1 X133.537 Y98.161 E0.00991
G1 X134.068 Y98.438 E0.00991
G1 X134.539 Y98.813 E0.00998
G1 X134.929 Y99.272 E0.00998
G1 X135.223 Y99.793 E0.00991
G1 X135.412 Y100.360 E0.00991
G1 X135.490 Y100.953 E0.00991
G1 X135.489 Y105.131 E0.06922
G1 X135.428 Y105.928 E0.01325
G1 X135.247 Y106.809 E0.01490
G1 X134.902 Y107.766 E0.01685
G1 X134.192 Y108.996 E0.02354
G1 X133.525 Y109.787 E0.01714
G1 X132.796 Y110.426 E0.01606
G1 X132.083 Y110.899 E0.01418
G1 X131.308 Y111.282 E0.01432
G1 X130.478 Y111.568 E0.01454
G1 X129.709 Y111.729 E0.01302
G1 X123.545 Y112.067 E0.10230
G1 X117.178 Y112.034 E0.10549
G1 X116.585 Y111.885 E0.01012
G1 X116.033 Y111.624 E0.01012
G1 X115.545 Y111.264 E0.01005
G1 X115.132 Y110.813 E0.01012
G1 X114.738 Y110.094 E0.01359
G1 X115.048 Y109.870 F10800.000
G1 F1582
G1 X114.892 Y109.122 E0.01266
G1 X114.886 Y104.959 E0.06898
G1 X114.967 Y103.999 E0.01597
G1 X115.325 Y102.669 E0.02282
G1 X115.772 Y101.742 E0.01705
G1 X116.665 Y100.562 E0.02451
G1 X117.468 Y99.848 E0.01780
G1 X118.123 Y99.418 E0.01299
G1 X118.886 Y99.046 E0.01408
G1 X119.676 Y98.781 E0.01380
G1 X120.555 Y98.614 E0.01482
G1 X126.452 Y98.310 E0.09785
G1 X132.364 Y98.309 E0.09796
G1 X132.898 Y98.362 E0.00889
G1 X133.408 Y98.516 E0.00882
G1 X133.881 Y98.767 E0.00889
G1 X134.297 Y99.105 E0.00889
G1 X134.638 Y99.514 E0.00882
G1 X134.895 Y99.985 E0.00889
G1 X135.056 Y100.496 E0.00889
G1 X135.114 Y101.025 E0.00882
G1 X135.112 Y105.111 E0.06769
G1 X135.056 Y105.868 E0.01258
G1 X134.886 Y106.700 E0.01407
G1 X134.561 Y107.604 E0.01590
G1 X133.877 Y108.789 E0.02268
G1 X133.242 Y109.536 E0.01624
G1 X132.532 Y110.152 E0.01557
G1 X131.148 Y110.940 E0.02640
G1 X129.628 Y111.361 E0.02613
G1 X123.539 Y111.690 E0.10103
G1 X117.255 Y111.664 E0.10412
G1 X116.719 Y111.533 E0.00916
G1 X116.219 Y111.297 E0.00916
G1 X115.777 Y110.966 E0.00916
G1 X115.407 Y110.550 E0.00922
G1 X115.076 Y109.923 E0.01174
G1 X115.385 Y109.690 F10800.000
G1 F1582
G1 X115.264 Y109.026 E0.01120
G1 X115.264 Y104.928 E0.06790
G1 X115.434 Y103.581 E0.02250
G1 X115.722 Y102.686 E0.01557
G1 X116.150 Y101.849 E0.01557
M73 Q6 S9
G1 X116.963 Y100.795 E0.02205
G1 X117.721 Y100.131 E0.01671
G1 X119.032 Y99.393 E0.02493
G1 X119.773 Y99.146 E0.01293
G1 X120.603 Y98.989 E0.01400
G1 X126.463 Y98.687 E0.09722
M73 P6 R9
G1 X132.364 Y98.686 E0.09778
G1 X133.073 Y98.795 E0.01188
G1 X133.717 Y99.111 E0.01188
G1 X134.237 Y99.604 E0.01188
G1 X134.586 Y100.227 E0.01182
G1 X134.736 Y100.990 E0.01288
G1 X134.737 Y105.019 E0.06677
G1 X134.536 Y106.549 E0.02557
G1 X133.988 Y107.914 E0.02437
G1 X133.389 Y108.804 E0.01777
G1 X132.928 Y109.316 E0.01142
G1 X132.279 Y109.869 E0.01413
G1 X130.996 Y110.595 E0.02443
G1 X129.552 Y110.991 E0.02481
G1 X123.537 Y111.313 E0.09980
G1 X117.332 Y111.294 E0.10282
G1 X116.851 Y111.180 E0.00819
G1 X116.404 Y110.968 E0.00819
G1 X116.011 Y110.669 E0.00819
G1 X115.688 Y110.294 E0.00819
G1 X115.412 Y109.744 E0.01020
; printing object CableCount.STL id:0 copy 0
;WIPE_START
G1 F8640.000
G1 X115.264 Y109.026 E-0.16936
G1 X115.264 Y106.468 E-0.59064
;WIPE_END
G1 E-0.04000 F2100.000
G1 Z0.700 F10800.000
G1 X127.606 Y107.495
G1 Z0.300
G1 E0.80000 F2100.000
M204 S800
;TYPE:Perimeter
;WIDTH:0.45
G1 F1500.000
G1 X127.606 Y102.145 E0.09532
G1 X131.178 Y102.145 E0.06365
G1 X131.178 Y104.965 E0.05023
G1 X131.155 Y105.325 E0.00644
G1 X131.091 Y105.645 E0.00581
G1 X130.986 Y105.954 E0.00581
G1 X130.842 Y106.247 E0.00581
G1 X130.661 Y106.518 E0.00581
G1 X130.446 Y106.763 E0.00581
G1 X130.201 Y106.978 E0.00581
G1 X129.930 Y107.159 E0.00581
G1 X129.637 Y107.303 E0.00581
G1 X129.328 Y107.408 E0.00581
G1 X129.008 Y107.472 E0.00581
G1 X128.648 Y107.495 E0.00644
G1 X127.666 Y107.495 E0.01749
M204 S1000
G1 X127.178 Y107.924 F10800.000
M204 S800
G1 F1500.000
G1 X127.178 Y101.717 E0.11059
G1 X131.607 Y101.717 E0.07892
G1 X131.607 Y104.979 E0.05812
G1 X131.580 Y105.381 E0.00719
G1 X131.506 Y105.756 E0.00681
G1 X131.383 Y106.118 E0.00681
G1 X131.214 Y106.461 E0.00681
G1 X131.002 Y106.779 E0.00681
G1 X130.749 Y107.066 E0.00681
G1 X130.462 Y107.319 E0.00681
G1 X130.144 Y107.531 E0.00681
G1 X129.801 Y107.700 E0.00681
G1 X129.439 Y107.823 E0.00681
G1 X129.064 Y107.897 E0.00681
